X: 213
T: A Good Night's Sleep
R: jig
M: 6/8
K: Amixolydian
|:B|EAE DCD|EAA A2 B|cEE AEc|D2 =c GAB|
EAE DCD|EAA c2 a|f/g/af dBF|GAF G2:|
|:g|ege dB^G|EAA A2 =C|D=FA f3|GB/c/d g2 =f|
e/f/ge dB^G|EAA c2 a|faf dBF|GAF G2:|

